X: 15363
T: Glasgow 1885
R: waltz
M: 3/4
K: Dmajor
AB/c/|d2 d3 A|B A3 dc|B2 A3 F|G A3 DE|
F3 AGE|F4 GA|B3 cdB|B2 A2 de|
f3 dgf|e f3 fe|d3 dcA|B2 A3 F|
G A3 DE|F3 AGF|G A3 de|f3 dgf|
e f3 fe|d3 dcA|B2 A2 AB/c/|d3 cAF|
G3 A B<d|G4 F2|E4 D2-|D4||

